X: 26205
T: Me Mother Won't Let Me Marry
R: jig
M: 6/8
K: Dmajor
DFA B2A|FGF F2E|DFA B2A|G3G2 F|
EGE EFG|c2c c2B|A^GA B2A|F3F2 E|
DFA B2A|F=GF F2E|DFA B2A|G3G2 F|
E2E EFG|c2c c2B|A^GA ABc|d3 e2 z||
f2f f2e|d2d d2e|ded c2d|e3e2 f|
g2g g2e|c2c c2B|A^GA B2A|F3F2 d|
f2f f2e|d2d d2e|ded c2d|e3e2 f|
g2g g2e|c2c c2B|A^GA ABc|d3d2 z||

